X: 165
T: Miss Woodcocks Fancy
B: 204 Favourite Country Dances
N: Published by Straight & Skillern, London ca.1775
F: http://imslp.org/wiki/204_Favourite_Country_Dances_(Various) p.83 #165
Z: 2014 John Chambers <jc:trillian.mit.edu>
M: 6/8
L: 1/8
K: G
% - - - - - - - - - - - - - - - - - - - - - - - - -
d |\
BGD (B/c/d)B | AFD (A/B/c)A |\
BGD (B/c/d)B | cAF G2 :|\
|: a |\
fdA (f/g/a)f | e^cA (e/f/g)e |
fdA (f/g/a)f | ge^c d2d |\
BGD (B/c/d)B | AFD (A/B/c)A |\
BGD (B/c/d)B | cAF G2 :|
% - - - - - - - - - - - - - - - - - - - - - - - - -
%%begintext align
%% 1st Man cast off and turn the 3d Wo. .|
%% the 1st Wo. cast off and turn the 3d Man. .|.
%% lead outsides & turn :|. foot it all four and
%% Right & Left at top :||:
%%endtext

%%sep 1 1 500
%%sep 1 1 500
